svg/arrow/align_arrow_right_fill.svg

<?xml version="1.0" encoding="UTF-8"?>
<svg width="24px" height="24px" viewBox="0 0 24 24" version="1.1" xmlns="http://www.w3.org/2000/svg" xmlns:xlink="http://www.w3.org/1999/xlink">
    <title>align_arrow_right_fill</title>
    <g id="Icon" stroke="none" stroke-width="1" fill="none" fill-rule="evenodd">
        <g id="Arrow" transform="translate(-96.000000, -146.000000)" fill-rule="nonzero">
            <g id="align_arrow_right_fill" transform="translate(96.000000, 146.000000)">
                <path d="M24,0 L24,24 L0,24 L0,0 L24,0 Z M12.5935,23.2578 L12.5819,23.2595 L12.5109,23.295 L12.4919,23.2987 L12.4767,23.295 L12.4057,23.2595 C12.3958,23.2564 12.387,23.259 12.3821,23.2649 L12.378,23.2758 L12.3609,23.7031 L12.3659,23.7235 L12.3769,23.7357 L12.4805,23.8097 L12.4953,23.8136 L12.5071,23.8097 L12.6107,23.7357 L12.6233,23.7197 L12.6267,23.7031 L12.6096,23.2758 C12.6076,23.2657 12.601,23.2593 12.5935,23.2578 Z M12.8584,23.1453 L12.8445,23.1473 L12.6598,23.2397 L12.6499,23.2499 L12.6472,23.2611 L12.6651,23.6906 L12.6699,23.7034 L12.6784,23.7105 L12.8793,23.8032 C12.8914,23.8069 12.9022,23.803 12.9078,23.7952 L12.9118,23.7812 L12.8777,23.1665 C12.8753,23.1546 12.8674,23.147 12.8584,23.1453 Z M12.143,23.1473 C12.1332,23.1424 12.1222,23.1453 12.1156,23.1526 L12.1099,23.1665 L12.0758,23.7812 C12.0751,23.7927 12.0828,23.8019 12.0926,23.8046 L12.1083,23.8032 L12.3092,23.7105 L12.3186,23.7024 L12.3225,23.6906 L12.3404,23.2611 L12.3372,23.2485 L12.3278,23.2397 L12.143,23.1473 Z" id="MingCute"></path>
                <path d="M14.9439,6.69693 C14.3581,7.28271 14.3581,8.23246 14.9439,8.81825 L16.6256,10.4999 L9,10.4999 C8.17157,10.4999 7.5,11.1715 7.5,11.9999 C7.5,12.8284 8.17157,13.4999 9,13.4999 L16.6261,13.4999 L14.9439,15.1822 C14.3581,15.768 14.3581,16.7178 14.9439,17.3035 C15.5296,17.8893 16.4794,17.8893 17.0652,17.3035 L21.3078,13.0609 C21.8936,12.4751 21.8936,11.5254 21.3078,10.9396 L17.0652,6.69693 C16.4794,6.11114 15.5296,6.11114 14.9439,6.69693 Z M2.5,19 C2.5,19.8284 3.17157,20.5 4,20.5 C4.82843,20.5 5.5,19.8284 5.5,19 L5.5,5 C5.5,4.17157 4.82843,3.5 4,3.5 C3.17157,3.5 2.5,4.17157 2.5,5 L2.5,19 Z" id="形状" fill="#09244B"></path>
            </g>
        </g>
    </g>
</svg>

<svg xmlns="http://www.w3.org/2000/svg" width="24" height="24"><g fill="none" fill-rule="nonzero"><path d="M24 0v24H0V0h24ZM12.594 23.258l-.012.002-.071.035-.02.004-.014-.004-.071-.036c-.01-.003-.019 0-.024.006l-.004.01-.017.428.005.02.01.013.104.074.015.004.012-.004.104-.074.012-.016.004-.017-.017-.427c-.002-.01-.009-.017-.016-.018Zm.264-.113-.014.002-.184.093-.01.01-.003.011.018.43.005.012.008.008.201.092c.012.004.023 0 .029-.008l.004-.014-.034-.614c-.003-.012-.01-.02-.02-.022Zm-.715.002a.023.023 0 0 0-.027.006l-.006.014-.034.614c0 .012.007.02.017.024l.015-.002.201-.093.01-.008.003-.011.018-.43-.003-.012-.01-.01-.184-.092Z"/><path fill="#09244B" d="M14.944 6.697a1.5 1.5 0 0 0 0 2.121l1.682 1.682H9a1.5 1.5 0 0 0 0 3h7.626l-1.682 1.682a1.5 1.5 0 1 0 2.121 2.121l4.243-4.242a1.5 1.5 0 0 0 0-2.121l-4.243-4.243a1.5 1.5 0 0 0-2.121 0ZM2.5 19a1.5 1.5 0 0 0 3 0V5a1.5 1.5 0 1 0-3 0v14Z"/></g></svg>
